!!!OTL: WENN DAS HERZ VOLL ANGST UND LEID
!!!ARE: Europa, Mitteleuropa, Deutschland
!!!SCT: F1004
!!!YEM: Copyright 1995, estate of Helmut Schaffrath.
**kern
*ICvox
*Ivox
*M4/4
*k[]
*C:
{4E
16G
16F
16E
16F
=1
8A
8G
8F
8E
4.c
8c
=2
4c
4B}
{4d
4d
=3
8d
8A
4A
4A
8B
8c
=4
4c
4B}
{4E
16G
16F
16E
16F
=5
8A
8G
8F
8E
4.c
8c
=6
4c
4B}
{4d
4d
=7
8d
8A
4A
4A
8B
8c
=8
4c
4B}
{4G
8A
8B
=9
4c
8d
8e
8g
8f
8f
8e
=10
4e
4d}
{4e
4c
=11
4c
8B
8A
8G
8c
8B
8d
=12
4d
4c}
==
!!!AGN: Erbauungs - Lied, religioes
!!!ONB: ESAC (Essen Associative Code) Database: FINK
!!!AMT: simple quadruple
!!!AIN: vox
!!!EED: Helmut Schaffrath
!!!EEV: 1.0
*-
